PortfolioPage/assets/social/artstation.svg

<svg xmlns="http://www.w3.org/2000/svg" width="26" height="23" fill="none">
  <path fill="#696969" d="m0 17.6727 2.20011 3.8017c.43494.8596 1.32001 1.448 2.34848 1.448H19.1514l-3.0291-5.2497H0Zm25.5727-1.4018L17.069 1.39682C16.6289.567988 15.754 0 14.746 0h-4.5231l13.165 22.9018 2.0825-3.6071c.0972-.1637 1.0745-1.5197.1023-3.0238Zm-11.6044-2.3282L8.05865 3.70958 2.14896 13.9427H13.9683Z"/>
</svg>

<svg width="26" height="23" viewBox="0 0 26 23" fill="none" xmlns="http://www.w3.org/2000/svg">
    <path d="M0 17.6727L2.20011 21.4744C2.63505 22.334 3.52012 22.9224 4.54859 22.9224H19.1514L16.1223 17.6727H0ZM25.5727 16.2709L17.069 1.39682C16.6289 0.567988 15.754 0 14.746 0H10.2229L23.3879 22.9018L25.4704 19.2947C25.5676 19.131 26.5449 17.775 25.5727 16.2709ZM13.9683 13.9427L8.05865 3.70958L2.14896 13.9427H13.9683Z" fill="#696969"/>
</svg>
